X: 34489
T: Riding On A Load Of Hay
R: polka
M: 2/4
K: Edorian
|:E>F GA|Be ef/e/|dB AF|A/B/A/F/ E2|
E>F GA|Be e>f|ge Bd|1 e2 e2:|2 e2 e/d/e/f/||
ge fd|eB B>c|dB AG|FD D>f|
ge fd|eB B>c|dB AF|E2 E>f|
ge fd|eB B>c|dB AG|FD D2|
E/F/G F/G/A|Be e>f|ge Bd|e2 e2||

